X:1
T:Title
%%score { ( 1 3 5 ) | ( 2 4 ) }
L:1/8
M:4/4
K:F
V:1 treble nm="Grand Piano"
V:3 treble 
V:5 treble 
V:2 bass 
V:4 bass 
V:1
 z4 z2[Q:1/4=104] C2 | c>d c2- cAGF | E>d [Ec]4[K:bass] [C,C]2 | %3
 [Ec]>[Ed] [Ec]2- [Ec][EB][EA][EG] |[M:3/4] F>f c4 |[M:1/4] C2 |[M:4/4] c>d c2- cAGF | %7
 E>G c2- cGce | e>f d2- dfed |[M:3/4] c->[Fc-] [Gc]4 | c2 [Cc]A z2 | z A [DA]A z2 | %12
 z A [EA]A [FA]2 | z2 [EB]4 | z2 z2 [DB]2- | [DB] z z2 [EB]2- | [EB] z z2 z2 | z2 [Ac]4 | %18
 [CA]2 [CA]A z2 | z A [DA]A z2 | z A [EA]A [FA]2 | z2 [DB]4 | [DB]2 [Fd]d [Fd]2 | %23
 [G^c]2 [A=c]c A2 | A2 [D=B]B [FB][AB] |[M:2/4] z2 [FA]2- | [FA]2 z2 |] %27
V:2
 z4 z2 C,2 | [F,A,F]>[F,B,F] [F,A,F]2- [F,A,F][F,CF][F,B,C][F,A,C] | [G,B,C]>[G,B,E] [C,B,]4 z2 | %3
 [C,B,]>[C,B,] [C,B,]2- [C,B,][C,G,][C,C][C,B,] |[M:3/4] [F,A,]>[F,A,F] [F,A,F]4 |[M:1/4] C,2 | %6
[M:4/4] [F,A,F]>[F,B,F] [F,A,F]2- [F,A,F][F,CF][F,B,C][F,A,C] | %7
 [G,C]>[G,CE] [G,CE]2- [G,CE][G,CE][G,CE][G,CG] | %8
 [G,=B,G]>[G,B,A] [G,B,F]2- [G,B,F][G,A][G,A,G][G,B,F] |[M:3/4][K:bass] z z/ A,/ B,4 | %10
 C2 z D [C,F,A,]2 | z D z E [C,F,A,]2 | z E z G [C,F,A,]2 | [C,F,A,]2 G,,2 C,2 | %14
 [C,E,G,]2 z D [C,E,G,B,]2 | z D z E [C,E,G,B,]2 | z D z D [C,E,G,B,]2 | [C,E,G,B,]2 z2 z2 | %18
 [C,F,A,]2 z D [C,F,A,]2 | z D z E [C,F,A,]2 | z E z G [C,F,A,]2 | [C,F,A,]2 B,,2 D,2 | %22
 [D,F,B,]2 z F [D,F,B,]2 | [D,F,B,]2 z A [C,F,A,C]2 | [C,F,A,C]2 z E [D,F,G,=B,]2 | %25
[M:2/4] z z/ F/ F,,2 | C,2 z2 |] %27
V:3
 x8 | x8 | x6[K:bass] x2 | x8 |[M:3/4] x6 |[M:1/4] x2 |[M:4/4] x8 | x8 | x8 |[M:3/4] [CE]2 z2 z2 | %10
 z2 z2 [DA]2- | [DA] z z2 [EA]2- | [EA] z z2 z2 | [DA]2 z2 [E,G,B,]2 | [B,CB]2 [CB]B z2 | %15
 z B [DB]B z2 | z B [CE]F [EG][FA] | [GB]=B z2 [F,A,]2 | z2 z2 [DA]2- | [DA] z z2 [EA]2- | %20
 [EA] z z2 z2 | [Ec]2 z2 [F,B,]2 | x6 | x6 | x6 |[M:2/4] [GB]>A z2 | [F,A,]2 z2 |] %27
V:4
 x8 | x8 | x8 | x8 |[M:3/4] x6 |[M:1/4] x2 |[M:4/4] x8 | x8 | x8 |[M:3/4][K:bass] C,6 | %10
 z2 F,,2 z2 | [C,F,]2 F,,2 z2 | [C,F,]2 F,,2 z2 | x6 | z2 C,,2 z2 | [C,E,G,]2 C,,2 z2 | %16
 [C,E,G,]2 C,,2 z2 | z _A F,,2 B,,2 | z2 F,,2 z2 | [C,F,]2 F,,2 z2 | [C,F,]2 F,,2 z2 | x6 | %22
 z2 B,,2 z2 | z2 C,2 z2 | z2 G,,2 z2 |[M:2/4] [C,E,G,B,]2 z2 | x4 |] %27
V:5
 x8 | x8 | x6[K:bass] x2 | x8 |[M:3/4] x6 |[M:1/4] x2 |[M:4/4] x8 | x8 | x8 |[M:3/4] x6 | x6 | %11
 A,2 z2 z2 | A,2 z2 z2 | x6 | x6 | B,2 z2 z2 | B,2 z2 z2 | x6 | x6 | A,2 z2 z2 | A,2 z2 z2 | x6 | %22
 x6 | x6 | x6 |[M:2/4] x4 | x4 |] %27

